Yaru++/apps/scalable/update-notifier.svg

<svg enable-background="new" height="256" viewBox="0 0 256 256" width="256" xmlns="http://www.w3.org/2000/svg" xmlns:xlink="http://www.w3.org/1999/xlink"><linearGradient id="a" gradientUnits="userSpaceOnUse" x1="149.333538" x2="150.501538" xlink:href="#b" y1="16.174765" y2="239.174765"/><linearGradient id="b"><stop offset="0" stop-color="#f1e2a7"/><stop offset="1" stop-color="#f9f1d2"/></linearGradient><filter id="c" color-interpolation-filters="sRGB" height="1.184" width="1.346" x="-.17" y="-.09"><feGaussianBlur stdDeviation="6.35"/></filter><linearGradient id="d" gradientTransform="matrix(.375 0 0 .5 31.333934 3.174765)" gradientUnits="userSpaceOnUse" x1="256" x2="256" xlink:href="#b" y1="24" y2="664"/><linearGradient id="e" gradientTransform="matrix(0 -.453125 -.45311204 0 253.29094 239.17476)" gradientUnits="userSpaceOnUse" x1="529.655" x2="-35.31" y1="401.584" y2="119.093"><stop offset="0" stop-color="#ea9d60"/><stop offset="1" stop-color="#efbe94"/></linearGradient><linearGradient id="f" gradientUnits="userSpaceOnUse" x1="88" x2="488" y1="88" y2="488"><stop offset="0" stop-opacity=".588235"/><stop offset=".88" stop-opacity="0"/><stop offset="1"/></linearGradient><filter id="g" color-interpolation-filters="sRGB" height="1.088" width="1.106" x="-.05" y="-.04"><feGaussianBlur stdDeviation="8.48"/></filter><filter id="h" color-interpolation-filters="sRGB" height="1.022" width="1.026" x="-.01" y="-.01"><feGaussianBlur stdDeviation="2.12"/></filter><path d="m189.84323 74c-70.59344 0-78.18921 7.250835-77.84323 77.98706v146.01294 146.01294c-.34598 70.73623 7.24979 77.98706 77.84323 77.98706h196.31354c70.59344 0 76.00668-7.27384 77.84323-77.98706v-146.01294-146.01294c0-70.737067-7.24979-77.98706-77.84323-77.98706z" filter="url(#h)" opacity=".1" transform="matrix(.5 0 0 .5 -16.666462 -20.825235)"/><path d="m189.84323 74c-70.59344 0-78.18921 7.250835-77.84323 77.98706v146.01294 146.01294c-.34598 70.73623 7.24979 77.98706 77.84323 77.98706h196.31354c70.59344 0 77.84323-7.24999 77.84323-77.98706v-146.01294-146.01294c0-70.737067-7.24979-77.98706-77.84323-77.98706z" fill="url(#f)" filter="url(#g)" opacity=".3" transform="matrix(.5 0 0 .5 -16.666462 -20.825235)"/><path d="m77.145138 13.174765c-36.098811 0-39.983003 3.690158-39.806081 39.689842v74.310153 74.31016c-.176922 35.99969 3.70727 39.68984 39.806081 39.68984h100.387322c36.09881 0 39.80608-3.68973 39.80608-39.68984v-74.31016-74.310153c0-36.000113-3.70727-39.689842-39.80608-39.689842z" opacity=".1"/><path d="m176.40692 15.174765c35.29673 0 39.09461 3.625418 38.92162 38.99353v73.006465 73.00647c.17299 35.36812-3.62489 38.99353-38.92162 38.99353h-98.156762c-35.29672 0-38.92162-3.625-38.92162-38.99353v-73.00647-73.006465c0-35.368533 3.6249-38.99353 38.92162-38.99353z" fill="url(#e)"/><path d="m119.33 15.18h16v224h-16z" fill="url(#d)" opacity=".6"/><path d="m55.33 175.18h52v32h-52z" fill="#f9f9f9"/><path d="m59.333934 183.17476v16h8v-16zm12 0v16h4.000004v-16zm8.000004 0v16h8v-16zm12 0v16h4v-16zm8 0v16h4.000002v-16z" fill="#5d5d5d"/><path d="m151.33394 179.17476v4h48v-4zm0 8v4h40v-4zm0 8v4h48v-4zm0 8v4h32v-4z" fill="#e2965b"/><path d="m127.33394 15.174765v223.999995h49.07812c35.29672 0 38.00361-3.63655 38.92188-38.99317v-73.00683-73.00683c0-35.368534-3.62516-38.993165-38.92188-38.993165z" fill="#fff" opacity=".08"/><path d="m105.33354 37.174765v71.999995h-22.000002s18.038682 44.02555 44.027342 80c.008 0 .0144-.005.0234-.01.0101-.004.0197-.009.0293-.0156.009-.007.0201-.0129.0293-.0176.0101-.005.0189-.01.0273-.01 26.8177-37.94599 43.86336-79.9468 43.86336-79.9468h-22v-71.999995z" fill="#da9763" filter="url(#c)" opacity=".5"/><path d="m105.33354 15.174765v86.000005h-22.000002s18.038682 44.02554 44.027342 79.99999c.008 0 .0144-.005.0234-.01.0101-.004.0197-.009.0293-.0156.009-.007.0201-.0129.0293-.0176.0101-.005.0189-.01.0273-.01 26.8177-37.94599 43.86336-79.94679 43.86336-79.94679h-22v-86.000005z" fill="url(#a)"/><path d="m78.255418 15.174765c-35.296728 0-39.09487 3.626029-38.92188 38.994141v2c-.17299-35.368112 3.625152-38.994141 38.92188-38.994141h98.156242c35.29673 0 38.92188 3.625608 38.92188 38.994141v-2c0-35.368533-3.62515-38.994141-38.92188-38.994141z" fill="#fff" opacity=".3"/><path d="m78.260818 239.17476c-35.296731 0-39.094875-3.62603-38.921885-38.99414v-2c-.17299 35.36811 3.625154 38.99414 38.921885 38.99414h98.156242c35.29673 0 38.92188-3.62561 38.92188-38.99414v2c0 35.36853-3.62515 38.99414-38.92188 38.99414z" opacity=".2"/></svg>

<svg xmlns="http://www.w3.org/2000/svg" xmlns:xlink="http://www.w3.org/1999/xlink" style="enable-background:new" width="256" height="256" version="1.0" viewBox="0 0 256 256">
 <title id="title4162">
  Adwaita Icon Template
 </title>
 <defs>
  <linearGradient id="linearGradient1494">
   <stop id="stop1490" offset="0" style="stop-color:#babdb6"/>
   <stop id="stop1492" offset="1" style="stop-color:#babdb6;stop-opacity:0"/>
  </linearGradient>
  <linearGradient id="linearGradient1496" x1="280" x2="280" y1="172" y2="20" gradientUnits="userSpaceOnUse" xlink:href="#linearGradient1494"/>
  <linearGradient id="linearGradient1329" x1="11.823" x2="115.82" y1="268" y2="268" gradientUnits="userSpaceOnUse">
   <stop id="stop1345" offset="0" style="stop-color:#986a44"/>
   <stop id="stop1347" offset=".029" style="stop-color:#cdab8f"/>
   <stop id="stop1349" offset=".058" style="stop-color:#b5835a"/>
   <stop id="stop1351" offset=".942" style="stop-color:#b5835a"/>
   <stop id="stop1353" offset=".971" style="stop-color:#cdab8f"/>
   <stop id="stop1355" offset="1" style="stop-color:#986a44"/>
  </linearGradient>
  <linearGradient id="linearGradient1610" x1="70.586" x2="60" y1="53.255" y2="23" gradientTransform="translate(0,170)" gradientUnits="userSpaceOnUse">
   <stop id="stop1652" offset="0" style="stop-color:#fff"/>
   <stop id="stop1654" offset="1" style="stop-color:#deddda"/>
  </linearGradient>
  <linearGradient id="linearGradient1612" x1="60" x2="68" y1="268" y2="268" gradientUnits="userSpaceOnUse">
   <stop id="stop1258" offset="0" style="stop-color:#949390"/>
   <stop id="stop1260" offset=".083" style="stop-color:#d5d3cf"/>
   <stop id="stop1262" offset=".167" style="stop-color:#949390"/>
   <stop id="stop1264" offset=".833" style="stop-color:#949390"/>
   <stop id="stop1266" offset=".917" style="stop-color:#d5d3cf"/>
   <stop id="stop1268" offset="1" style="stop-color:#949390"/>
  </linearGradient>
  <linearGradient id="linearGradient29716" x1="174" x2="175.168" y1="45" y2="268" gradientTransform="translate(-24.666462,-28.825235)" gradientUnits="userSpaceOnUse" xlink:href="#linearGradient4235"/>
  <linearGradient id="linearGradient4235">
   <stop style="stop-color:#f1e2a7" id="stop4237" offset="0"/>
   <stop style="stop-color:#f9f1d2" id="stop4239" offset="1"/>
  </linearGradient>
  <filter style="color-interpolation-filters:sRGB" id="filter29967" width="1.346" height="1.184" x="-.17" y="-.09">
   <feGaussianBlur id="feGaussianBlur29969" stdDeviation="6.35"/>
  </filter>
  <linearGradient id="linearGradient4241" x1="256" x2="256" y1="24" y2="664" gradientTransform="matrix(0.375,0,0,0.5,31.333934,3.174765)" gradientUnits="userSpaceOnUse" xlink:href="#linearGradient4235"/>
  <linearGradient id="linearGradient4226" x1="529.655" x2="-35.31" y1="401.584" y2="119.093" gradientTransform="matrix(0,-0.453125,-0.45311204,0,253.29094,239.17476)" gradientUnits="userSpaceOnUse" xlink:href="#linearGradient4338"/>
  <linearGradient id="linearGradient4338">
   <stop style="stop-color:#ea9d60" id="stop4340" offset="0"/>
   <stop style="stop-color:#efbe94" id="stop4342" offset="1"/>
  </linearGradient>
  <linearGradient id="linearGradient4358" x1="88" x2="488" y1="88" y2="488" gradientUnits="userSpaceOnUse" xlink:href="#linearGradient4360"/>
  <linearGradient id="linearGradient4360">
   <stop id="stop4362" offset="0" style="stop-color:#000000;stop-opacity:0.58823532"/>
   <stop style="stop-color:#000000;stop-opacity:0" id="stop4364" offset=".88"/>
   <stop id="stop4366" offset="1" style="stop-color:#000000"/>
  </linearGradient>
  <filter style="color-interpolation-filters:sRGB" id="filter4380" width="1.106" height="1.088" x="-.05" y="-.04">
   <feGaussianBlur id="feGaussianBlur4382" stdDeviation="8.48"/>
  </filter>
  <filter style="color-interpolation-filters:sRGB" id="filter4346" width="1.026" height="1.022" x="-.01" y="-.01">
   <feGaussianBlur id="feGaussianBlur4348" stdDeviation="2.12"/>
  </filter>
 </defs>
 <path style="opacity:0.1;filter:url(#filter4346)" d="M 189.84323,74 C 119.24979,74 111.65402,81.250835 112,151.98706 V 298 444.01294 C 111.65402,514.74917 119.24979,522 189.84323,522 H 386.15677 C 456.75021,522 462.16345,514.72616 464,444.01294 V 298 151.98706 C 464,81.249993 456.75021,74 386.15677,74 Z" transform="matrix(0.5,0,0,0.5,-16.666462,-20.825235)"/>
 <path d="M 189.84323,74 C 119.24979,74 111.65402,81.250835 112,151.98706 V 298 444.01294 C 111.65402,514.74917 119.24979,522 189.84323,522 H 386.15677 C 456.75021,522 464,514.75001 464,444.01294 V 298 151.98706 C 464,81.249993 456.75021,74 386.15677,74 Z" transform="matrix(0.5,0,0,0.5,-16.666462,-20.825235)" style="opacity:0.3;fill:url(#linearGradient4358);filter:url(#filter4380)"/>
 <path style="opacity:0.1" d="m 77.145138,13.174765 c -36.098811,0 -39.983003,3.690158 -39.806081,39.689842 v 74.310153 74.31016 c -0.176922,35.99969 3.70727,39.68984 39.806081,39.68984 H 177.53246 c 36.09881,0 39.80608,-3.68973 39.80608,-39.68984 V 127.17476 52.864607 c 0,-36.000113 -3.70727,-39.689842 -39.80608,-39.689842 z"/>
 <path style="fill:url(#linearGradient4226)" d="m 176.40692,15.174765 c 35.29673,0 39.09461,3.625418 38.92162,38.99353 v 73.006465 73.00647 c 0.17299,35.36812 -3.62489,38.99353 -38.92162,38.99353 H 78.250158 c -35.29672,0 -38.92162,-3.625 -38.92162,-38.99353 V 127.17476 54.168295 c 0,-35.368533 3.6249,-38.99353 38.92162,-38.99353 z"/>
 <rect style="opacity:0.6;fill:url(#linearGradient4241)" width="16" height="224" x="119.33" y="15.18"/>
 <rect style="fill:#f9f9f9" width="52" height="32" x="55.33" y="175.18"/>
 <path style="fill:#5d5d5d" d="m 59.333934,183.17476 v 16 h 8 v -16 z m 12,0 v 16 h 4.000004 v -16 z m 8.000004,0 v 16 h 8 v -16 z m 12,0 v 16 h 4 v -16 z m 8,0 v 16 h 4.000002 v -16 z"/>
 <path style="fill:#e2965b" d="m 151.33394,179.17476 v 4 h 48 v -4 z m 0,8 v 4 h 40 v -4 z m 0,8 v 4 h 48 v -4 z m 0,8 v 4 h 32 v -4 z"/>
 <path style="opacity:0.07999998;fill:#ffffff" d="M 127.33394,15.174765 V 239.17476 h 49.07812 c 35.29672,0 38.00361,-3.63655 38.92188,-38.99317 V 127.17476 54.16793 c 0,-35.368534 -3.62516,-38.993165 -38.92188,-38.993165 z"/>
 <path style="opacity:0.5;fill:#da9763;filter:url(#filter29967)" d="M 105.33354,37.174765 V 109.17476 H 83.333538 c 0,0 18.038682,44.02555 44.027342,80 0.008,0 0.0144,-0.005 0.0234,-0.01 0.0101,-0.004 0.0197,-0.009 0.0293,-0.0156 0.009,-0.007 0.0201,-0.0129 0.0293,-0.0176 0.0101,-0.005 0.0189,-0.01 0.0273,-0.01 26.8177,-37.94599 43.86336,-79.9468 43.86336,-79.9468 h -22 V 37.174765 Z"/>
 <path style="fill:url(#linearGradient29716)" d="M 105.33354,15.174765 V 101.17477 H 83.333538 c 0,0 18.038682,44.02554 44.027342,79.99999 0.008,0 0.0144,-0.005 0.0234,-0.01 0.0101,-0.004 0.0197,-0.009 0.0293,-0.0156 0.009,-0.007 0.0201,-0.0129 0.0293,-0.0176 0.0101,-0.005 0.0189,-0.01 0.0273,-0.01 26.8177,-37.94599 43.86336,-79.94679 43.86336,-79.94679 h -22 V 15.174765 Z"/>
 <path style="opacity:0.3;fill:#ffffff" d="m 78.255418,15.174765 c -35.296728,0 -39.09487,3.626029 -38.92188,38.994141 v 2 C 39.160548,20.800794 42.95869,17.174765 78.255418,17.174765 h 98.156242 c 35.29673,0 38.92188,3.625608 38.92188,38.994141 v -2 c 0,-35.368533 -3.62515,-38.994141 -38.92188,-38.994141 z"/>
 <path style="opacity:0.2" d="m 78.260818,239.17476 c -35.296731,0 -39.094875,-3.62603 -38.921885,-38.99414 v -2 c -0.17299,35.36811 3.625154,38.99414 38.921885,38.99414 h 98.156242 c 35.29673,0 38.92188,-3.62561 38.92188,-38.99414 v 2 c 0,35.36853 -3.62515,38.99414 -38.92188,38.99414 z"/>
</svg>
